icons/copy-outline.svg

<svg xmlns="http://www.w3.org/2000/svg" width="24" height="24" viewBox="0 0 24 24">
  <path d="M13,8 C14.6568542,8 16,9.34314575 16,11 L16,11 L16,19 C16,20.6568542 14.6568542,22 13,22 L13,22 L5,22 C3.34314575,22 2,20.6568542 2,19 L2,19 L2,11 C2,9.34314575 3.34314575,8 5,8 L5,8 Z M13,10 L5,10 C4.44771525,10 4,10.4477153 4,11 L4,11 L4,19 C4,19.5522847 4.44771525,20 5,20 L5,20 L13,20 C13.5522847,20 14,19.5522847 14,19 L14,19 L14,11 C14,10.4477153 13.5522847,10 13,10 L13,10 Z M19.2857143,2 C20.7292522,2 21.9095938,3.12687726 21.9950464,4.548939 L22,4.71428571 L22,13.2857143 C22,14.7847729 20.7847729,16 19.2857143,16 C18.7334295,16 18.2857143,15.5522847 18.2857143,15 C18.2857143,14.4871642 18.6717545,14.0644928 19.1690932,14.0067277 L19.2857143,14 C19.6473293,14 19.9461819,13.731282 19.9934794,13.3826386 L20,13.2857143 L20,4.71428571 C20,4.3526707 19.731282,4.05381813 19.3826386,4.00652059 L19.2857143,4 L10.7142857,4 C10.3526707,4 10.0538181,4.26871798 10.0065206,4.61736137 L10,4.71428571 C10,5.26657046 9.55228475,5.71428571 9,5.71428571 C8.44771525,5.71428571 8,5.26657046 8,4.71428571 C8,3.2707478 9.12687726,2.09040617 10.548939,2.00495361 L10.7142857,2 L19.2857143,2 Z"/>
</svg>

<svg xmlns="http://www.w3.org/2000/svg" viewBox="0 0 24 24">
  <path d="M13 8a3 3 0 0 1 3 3v8a3 3 0 0 1-3 3H5a3 3 0 0 1-3-3v-8a3 3 0 0 1 3-3zm0 2H5a1 1 0 0 0-1 1v8a1 1 0 0 0 1 1h8a1 1 0 0 0 1-1v-8a1 1 0 0 0-1-1zm6.29-8a2.71 2.71 0 0 1 2.7 2.55l.01.16v8.58c0 1.5-1.22 2.71-2.71 2.71a1 1 0 0 1-.12-2h.12a.7.7 0 0 0 .7-.62l.01-.1V4.72a.71.71 0 0 0-.62-.7l-.1-.01h-8.57a.71.71 0 0 0-.7.62l-.01.1a1 1 0 1 1-2 0A2.71 2.71 0 0 1 10.55 2h8.74z"/>
</svg>
